resources/icons/16px/syringe.svg

<svg width="16" height="16" viewBox="0 0 16 16" fill="none" xmlns="http://www.w3.org/2000/svg">
<path d="M11.1464 0.146447C11.3417 -0.0488156 11.6583 -0.0488156 11.8536 0.146447L15.8536 4.14645C16.0488 4.34171 16.0488 4.65829 15.8536 4.85355C15.6583 5.04882 15.3417 5.04882 15.1464 4.85355L14.5 4.20711L13.2071 5.5L14.8536 7.14645C15.0488 7.34171 15.0488 7.65829 14.8536 7.85355C14.6583 8.04882 14.3417 8.04882 14.1464 7.85355L13.5 7.20711L12.3532 8.35387L6.85355 13.8536C6.65829 14.0488 6.34171 14.0488 6.14645 13.8536L5.5 13.2071L3.85355 14.8536C3.65829 15.0488 3.34171 15.0488 3.14645 14.8536L2.5 14.2071L0.853553 15.8536C0.65829 16.0488 0.341709 16.0488 0.146446 15.8536C-0.0488153 15.6583 -0.0488153 15.3417 0.146446 15.1464L1.79289 13.5L1.14645 12.8536C0.951184 12.6583 0.951184 12.3417 1.14645 12.1464L2.79289 10.5L2.14645 9.85355C1.95118 9.65829 1.95118 9.34171 2.14645 9.14645L7.64678 3.64611L8.79289 2.5L8.14645 1.85355C7.95118 1.65829 7.95118 1.34171 8.14645 1.14645C8.34171 0.951184 8.65829 0.951184 8.85355 1.14645L10.5 2.79289L11.7929 1.5L11.1464 0.853553C10.9512 0.658291 10.9512 0.341709 11.1464 0.146447ZM11.2929 8L8 4.70711L3.20711 9.5L6.5 12.7929L7.79289 11.5L6.14645 9.85355C5.95118 9.65829 5.95118 9.34171 6.14645 9.14645C6.34171 8.95118 6.65829 8.95118 6.85355 9.14645L8.5 10.7929L9.79289 9.5L8.14645 7.85355C7.95118 7.65829 7.95118 7.34171 8.14645 7.14645C8.34171 6.95118 8.65829 6.95118 8.85355 7.14645L10.5 8.79289L11.2929 8ZM8.70711 4L12 7.29289L12.7929 6.5L9.5 3.20711L8.70711 4ZM2.20711 12.5L3.5 13.7929L4.79289 12.5L3.5 11.2071L2.20711 12.5ZM13.7929 3.5L12.5 2.20711L11.2071 3.5L12.5 4.79289L13.7929 3.5Z" fill="black"/>
</svg>

<svg xmlns="http://www.w3.org/2000/svg" viewBox="0 0 16 16">
  <path d="M11.146.146a.5.5 0 0 1 .708 0l4 4a.5.5 0 0 1-.708.708l-.646-.647L13.207 5.5l1.647 1.646a.5.5 0 0 1-.708.708l-.646-.647-1.147 1.147-5.5 5.5a.5.5 0 0 1-.707 0l-.646-.647-1.646 1.647a.5.5 0 0 1-.708 0l-.646-.647-1.646 1.647a.5.5 0 0 1-.708-.708L1.793 13.5l-.647-.646a.5.5 0 0 1 0-.708L2.793 10.5l-.647-.646a.5.5 0 0 1 0-.708l5.5-5.5L8.794 2.5l-.647-.646a.5.5 0 1 1 .708-.708L10.5 2.793 11.793 1.5l-.647-.646a.5.5 0 0 1 0-.708M11.293 8 8 4.707 3.207 9.5 6.5 12.793 7.793 11.5 6.146 9.854a.5.5 0 1 1 .708-.708L8.5 10.793 9.793 9.5 8.146 7.854a.5.5 0 1 1 .708-.708L10.5 8.793zM8.707 4 12 7.293l.793-.793L9.5 3.207zm-6.5 8.5L3.5 13.793 4.793 12.5 3.5 11.207zm11.586-9L12.5 2.207 11.207 3.5 12.5 4.793z"/>
</svg>
